!!!!SEGMENT: pl-kk--kk-i-1--018_anonim--graduale-audi-filia.krn
!!!cenid: 15xx:731
!!!COM: Anonim
!!!COM-rismID: pe30004985
!!!CDT:
!!!CNT:
!!!OTL: Graduale/Audi filia
!!!PDT:
!!!AGN:
!!!SMS-siglum: PL-Kk
!!!SMS-shelfmark: Kk.I.1
!!!SMS-shelfwork: 018 W
!!!SMS-variant:
!!!SMS-altvar:
!!!NIFC-rismSourceID: 300257954
!!!NIFC-rismChildID: 300257972
!!!NIFC-islandoraID: pl-kk:1
!!!URL-pdf-islandora: https://repozytorium.nifc.pl/islandora/object/pl-kk%3A1/datastream/PDF/view
!!!URL-scan: https://polish.musicsources.pl/pl/lokalizacje/galeria/rekopisy/5736 @EN{Scan on Polish Music Sources Website} @PL{Skany w portalu Dziedzictwo Muzyki Polskiej w otwartym dostępie}
!!!IIIF: https://repozytorium.nifc.pl/islandora/object/pl-kk%3A1/datastream/IIIF/view
!!!ONB-nifc: UWAGA: Cantus (s. 101v-103r, skan 0104-0105), Altus (s. 96v-97v, skan 0290-0291), Tenor (s. 91v-92r, skan 0482), Bassus (s. 95r-96v, skan 0657-0659).
!!!AIN: 1 alto 1 bass 1 soprn 1 tenor
!!!key: G:mix
**kern	**text	**text	**kern	**text	**text	**kern	**text	**text	**kern	**text	**text
*part4	*part4	*part4	*part3	*part3	*part3	*part2	*part2	*part2	*part1	*part1	*part1
*staff4	*staff4	*staff4	*staff3	*staff3	*staff3	*staff2	*staff2	*staff2	*staff1	*staff1	*staff1
*I"BASSVS	*	*	*I"TENOR	*	*	*I"ALTVS	*	*	*I"CANTVS	*	*
*I'B	*	*	*I'T	*	*	*I'A	*	*	*I'C	*	*
*ICvox	*	*	*ICvox	*	*	*ICvox	*	*	*ICvox	*	*
*Ibass	*	*	*Itenor	*	*	*Ialto	*	*	*Isoprn	*	*
*clefF4	*	*	*clefC3	*	*	*clefC4	*	*	*clefC3	*	*
*G:mix	*	*	*G:mix	*	*	*G:mix	*	*	*G:mix	*	*
*k[]	*	*	*k[]	*	*	*k[]	*	*	*k[]	*	*
*M2/1	*	*	*M2/1	*	*	*M2/1	*	*	*M2/1	*	*
*met(c)	*	*	*met(c)	*	*	*met(c)	*	*	*met(c)	*	*
=1	=1	=1	=1	=1	=1	=1	=1	=1	=1	=1	=1
*xywh-#657:5958,2907,4208,817	*	*	*xywh-#482:1253,550,4152,885	*	*	*xywh-#290:1434,1306,4104,795	*	*	*xywh-#104:1559,1442,4148,764	*	*
!	!	!	!	!	!	!LO:TX:t=P::problem=innym, późniejszym charakterem pisma dopisany drugi tekst&colon; propter veritatem (z potrydenckich względów liturgicznych)	!	!	!LO:TX:t=P::problem=innym, późniejszym charakterem pisma dopisany drugi tekst&colon; propter veritatem (z potrydenckich względów liturgicznych)	!	!
!LO:TX:t=P::problem=innym, późniejszym charakterem pisma dopisany drugi tekst&colon; propter veritatem (z potrydenckich względów liturgicznych)	!	!	!LO:TX:t=P::problem=innym, późniejszym charakterem pisma dopisany drugi tekst&colon; propter veritatem (z potrydenckich względów liturgicznych)	!	!	!LO:TX:a:B:t=Gradu\nale.	!	!	!LO:TX:a:B:t=Gradu\nale.	!	!
1G	Au-	Pro-	1G	Au-	pro-	1d	Au-	Pro-	1g	Au-	Pro-
1C	-di	-pter	1G	-di	.	1c	.	.	1e	-di	.
=2	=2	=2	=2	=2	=2	=2	=2	=2	=2	=2	=2
2.E\	fi-	.	1G	fi-	-pter	1B	-di	.	2.g\	fi-	.
4D/	.	pro-	.	.	.	.	.	.	4f\	.	.
4C/	.	.	1G	-li-	ve-	2c\	.	-per	4e\	.	.
4BB/	.	.	.	.	.	.	.	.	4d\	.	.
1C	.	.	.	.	.	4C/	fi-	.	1e	.	-pter
.	.	.	.	.	.	4D/	.	ve-	.	.	.
=3	=3	=3	=3	=3	=3	=3	=3	=3	=3	=3	=3
*	*	*	*lig	*	*	*	*	*	*	*	*
.	.	.	1G	-a	.	4E/	.	.	.	.	.
.	.	.	.	.	.	4F/	.	.	.	.	.
2BB/	.	.	.	.	.	1G	.	.	2d/	-li-	.
1AA	-li-	.	1c	.	.	.	.	.	2c/	-a,	.
.	.	.	.	.	.	2F/	-li-	-ri-	2A/	et	.
*	*	*	*Xlig	*	*	*	*	*	*	*	*
=4	=4	=4	=4	=4	=4	=4	=4	=4	=4	=4	=4
2GG/	-a	-pter	1B	.	.	2G/	-a,	-ta-	2.d\	ui-	ve-
2G\	et	Ve-	.	.	.	2B/	et	.	.	.	.
.	.	.	.	.	.	.	.	.	4e\	.	.
2F\	.	.	1c	et	.	2A/	ui-	.	2f\	.	.
*custos:D	*	*	*	*	*	*custos:A	*	*	*	*	*
2E\	.	-ri-	.	.	.	2G/	-de	.	1g	.	.
!LO:LB:g=original	!	!	!	!	!	!LO:LB:g=original	!	!	!	!	!
=5	=5	=5	=5	=5	=5	=5	=5	=5	=5	=5	=5
*	*	*	*lig	*	*	*	*ij	*	*	*	*
*xywh-#658:1201,668,4244,760	*	*	*	*	*	*xywh-#290:1417,2033,4122,795	*	*	*	*	*
2.D/	ui-	-ta-	1d	ui-	.	1.A	et	-tem	.	.	.
*	*	*	*	*	*	*	*	*	*custos:e	*	*
.	.	.	.	.	.	.	.	.	2f\	.	-ri-
4C/	.	.	.	.	.	.	.	.	.	.	.
!	!	!	!	!	!	!	!	!	!LO:LB:g=original	!	!
*	*	*	*	*	*	*	*	*	*xywh-#104:1559,2155,4136,793	*	*
4AA/	.	.	1c	.	.	.	.	.	1e	.	-ta-
4BB/	.	.	.	.	.	.	.	.	.	.	.
2C/	.	.	.	.	.	2.G/	ui-	pro-	.	.	.
*	*	*	*Xlig	*	*	*	*	*	*	*	*
=6	=6	=6	=6	=6	=6	=6	=6	=6	=6	=6	=6
2GG/	-de	-te(m)	1d	.	-ri-	.	.	.	2d/	-de	.
.	.	.	.	.	.	4A/	.	.	.	.	.
*	*ij	*	*	*	*	*	*	*	*	*ij	*
2.GG/	et	Ve-	.	.	.	4B\	.	.	4G/	et	.
.	.	.	.	.	.	4c\	.	.	4A/	.	.
*	*	*	*lig	*	*	*	*	*	*	*	*
.	.	.	1d	-de	-ta-	2d\	-de	-pter	4B/	.	.
4AA/	.	.	.	.	.	.	.	.	4c/	.	.
4BB/	.	.	.	.	.	2.D/	et	ve-	2d\	.	.
4C/	.	.	.	.	.	.	.	.	.	.	.
=7	=7	=7	=7	=7	=7	=7	=7	=7	=7	=7	=7
1D	.	.	1f	.	.	.	.	.	2A/	.	.
.	.	.	.	.	.	4E/	.	.	.	.	.
.	.	.	.	.	.	4F/	.	.	2.d/	ui-	.
.	.	.	.	.	.	4G/	.	.	.	.	.
*	*	*	*Xlig	*	*	*	*	*	*	*	*
*	*	*	*lig	*	*	*	*	*	*	*	*
2AA/	ui-	-ri-	1e	.	.	2A/	.	.	.	.	.
.	.	.	.	.	.	.	.	.	4c/	.	.
2C/	.	-ta-	.	.	.	2G/	.	.	1c	.	.
=8	=8	=8	=8	=8	=8	=8	=8	=8	=8	=8	=8
2GG/	-de	-te(m)	1d	.	.	1G	ui-	-ri-	.	.	.
2G\	et	pro-	.	.	.	.	.	.	2B/	.	.
*	*	*	*Xlig	*	*	*	*	*	*	*	*
*	*	*	*lig	*	*	*	*	*	*	*	*
1.F	ui-	-pter	1f	.	.	1.A	.	-ta-	1c	-de	-tem
*	*	*	*	*	*	*	*	*	*	*Xij	*
=9	=9	=9	=9	=9	=9	=9	=9	=9	=9	=9	=9
.	.	.	1c	.	.	.	.	.	2r	.	.
2E/	.	Ve-	.	.	.	2G/	.	.	2g\	et	et
*	*	*	*Xlig	*	*	*	*	*	*	*	*
*	*	*	*custos:c	*	*	*	*	*	*	*	*
2F\	.	-ri-	1d	.	.	2A\	.	.	2f\	.	.
2G\	.	-ta-	.	.	.	2B\	.	.	2d/	ui-	.
!	!	!	!LO:LB:g=original	!	!	!	!	!	!	!	!
=10	=10	=10	=10	=10	=10	=10	=10	=10	=10	=10	=10
*	*	*	*xywh-#482:1242,1373,4157,833	*	*	*	*	*	*	*	*
1C	-de	-te(m)	1c	.	-tem	1G	-de	-tem	1e	-de,	man-
*custos:E	*	*	*	*	*	*	*	*	*	*	*
*	*Xij	*	*	*	*	*	*	*	*	*	*
1G	et	et	1B	.	.	1r	.	.	1d	.	-ſve-
*	*	*	*	*	*	*	*Xij	*	*	*	*
!LO:LB:g=original	!	!	!	!	!	!	!	!	!	!	!
=11	=11	=11	=11	=11	=11	=11	=11	=11	=11	=11	=11
*xywh-#658:1184,1389,4290,788	*	*	*	*	*	*	*	*	*	*	*
2E/	in-	Man-	1G	et	et	2r	.	.	1g	et	.
*	*	*	*	*	*	*custos:c	*	*	*	*	*
2E/	-cli-	-ſve-	.	.	.	2B/	et	et	.	.	.
*	*	*	*	*	*	*xywh-#290:1411,2782,4191,760	*	*	*	*	*
!	!	!	!	!	!	!LO:LB:g=original	!	!	!	!	!
1C	-na	-tu-	1c	in-	.	2c\	in-	man-	2e\	in-	.
*	*	*	*	*	*	*	*	*	*custos:c	*	*
.	.	.	.	.	.	2G/	-cli-	.	2e\	-cli-	-tu-
!	!	!	!	!	!	!	!	!	!LO:LB:g=original	!	!
=12	=12	=12	=12	=12	=12	=12	=12	=12	=12	=12	=12
*	*	*	*lig	*	*	*	*	*	*	*	*
*	*	*	*	*	*	*	*	*	*xywh-#104:1599,2890,4084,811	*	*
2.F\	au-	-di-	1c	-cli-	man-	1.A	-na	.	2c/	-na	-di-
.	.	.	.	.	.	.	.	.	1f	au-	-ne
4F\	.	-ne(m)	.	.	.	.	.	.	.	.	.
2D/	-rem	.	1d	.	.	.	.	.	.	.	.
2G\	et	et	.	.	.	2B\	au-	.	2d\	-re(m),	.
*	*	*	*Xlig	*	*	*	*	*	*	*	*
=13	=13	=13	=13	=13	=13	=13	=13	=13	=13	=13	=13
2F\	in-	Man-	1f	.	.	1A	-re	-ſve-	2r	.	.
2.D/	-cli-	-ſve-	.	.	.	.	.	.	1d	et	Man-
*	*	*	*lig	*	*	*	*ij	*	*	*	*
.	.	.	1f	-na	-ſve-	2.A/	et	-tu-	.	.	.
4E\	.	.	.	.	.	.	.	.	.	.	.
4F\	.	.	.	.	.	.	.	.	4c/	.	-ſve-
4G\	.	.	.	.	.	4B\	.	-di-	4B/	.	.
=14	=14	=14	=14	=14	=14	=14	=14	=14	=14	=14	=14
2A\	-­-	.	1c	.	.	2c\	.	-ne	2A/	.	.
1F	.	-tu-	.	.	.	1A	in-	Et	2.a\	in-	-tu-
*	*	*	*Xlig	*	*	*	*	*	*	*	*
.	.	.	1d	.	-tu-	.	.	.	.	.	.
.	.	.	.	.	.	.	.	.	4g\	-cli-	.
2G\	.	-di-	.	.	.	2B\	.	Man-	1g	.	-di-
=15	=15	=15	=15	=15	=15	=15	=15	=15	=15	=15	=15
1A	-na	-ne(m)	1c	.	-di-	2.c\	-cli-	.	.	.	.
.	.	.	.	.	.	.	.	.	2f\	.	-ne
.	.	.	.	.	.	4d\	.	-ſve-	.	.	.
0G	.	.	1B	.	-nem	2e\	.	-tu-	2g\	-na	et
.	.	.	.	.	.	4d\	.	.	1g	au-	Ju-
.	.	.	.	.	.	4c\	.	-di-	.	.	.
=16	=16	=16	=16	=16	=16	=16	=16	=16	=16	=16	=16
*	*	*	*lig	*	*	*	*	*	*	*	*
.	.	.	1G	au-	et	1d	-na	-ne	.	.	.
.	.	.	.	.	.	.	.	.	4f\	.	.
.	.	.	.	.	.	.	.	.	4e\	.	.
*	*	*	*	*	*	*lig	*Xij	*	*	*	*
1r	.	.	1d	.	.	1G	au-	et	2d/	.	-ſti-
.	.	.	.	.	.	.	.	.	1B	.	-ti-
*	*	*	*Xlig	*	*	*	*	*	*	*	*
=17	=17	=17	=17	=17	=17	=17	=17	=17	=17	=17	=17
*lig	*	*	*lig	*	*	*	*	*	*	*	*
1GG	au-	et	1d	-rem	ju-	1d	.	.	.	.	.
.	.	.	.	.	.	.	.	.	4A/	.	.
.	.	.	.	.	.	.	.	.	4G/	.	.
*	*	*	*	*	*	*Xlig	*	*	*	*	*
*	*	*	*	*	*	*lig	*	*	*	*	*
*	*	*	*	*	*	*	*	*	*custos:d	*	*
1D	.	.	1f	.	.	1d	-re	iu-	2A/	-rem	-am
*	*	*	*	*	*	*	*	*	*xywh-#104:6167,673,4148,857	*	*
!	!	!	!	!	!	!	!	!	!LO:LB:g=original	!	!
.	.	.	.	.	.	.	.	.	1d	.	ju-
*Xlig	*	*	*Xlig	*	*	*	*	*	*	*	*
=18	=18	=18	=18	=18	=18	=18	=18	=18	=18	=18	=18
*lig	*	*	*lig	*	*	*	*	*	*	*	*
*	*	*	*	*	*	*custos:F	*	*	*	*	*
1D	-rem	Ju-	1d	tu-	-ſti-	1f	.	.	.	.	.
.	.	.	.	.	.	.	.	.	4c/	tu-	-ſti-
.	.	.	.	.	.	.	.	.	4B/	-am,	.
!	!	!	!	!	!	!LO:LB:g=original	!	!	!	!	!
*	*	*	*	*	*	*Xlig	*	*	*	*	*
*	*	*	*	*	*	*xywh-#290:6004,649,4156,847	*	*	*	*	*
1F	.	.	1c	.	.	2.F/	tu-	-ſti-	2.A/	.	-ti-
.	.	.	.	.	.	4G/	-am,	-ti-	4A/	.	-am
*Xlig	*	*	*Xlig	*	*	*	*	*	*	*	*
=19	=19	=19	=19	=19	=19	=19	=19	=19	=19	=19	=19
*lig	*	*	*lig	*	*	*	*	*	*	*	*
1D	tu-	-ſti-	1d	-am	-ti-	1A	.	-am	2F/	.	.
.	.	.	.	.	.	.	.	.	2f\	au-	et
1G	.	-ti-	1B	.	.	0G	.	.	1d	-rem	de-
*Xlig	*	*	*Xlig	*	*	*	*	*	*	*	*
=20	=20	=20	=20	=20	=20	=20	=20	=20	=20	=20	=20
*custos:F	*	*	*	*	*	*	*	*	*	*	*
*	*	*	*lig	*	*	*	*ij	*	*	*	*
1C	-am,	-a(m)	1c	.	-am	.	.	.	1e	.	-du-
*xywh-#658:1190,2098,4267,890	*	*	*	*	*	*	*	*	*	*	*
!LO:LB:g=original	!	!	!	!	!	!	!	!	!	!	!
1F	au-	Ju-	1A	.	.	2r	.	.	2.c/	tu-	.
.	.	.	.	.	.	2A/	au-	et	.	.	.
.	.	.	.	.	.	.	.	.	4d/	.	.
*	*	*	*Xlig	*	*	*	*	*	*	*	*
=21	=21	=21	=21	=21	=21	=21	=21	=21	=21	=21	=21
*	*	*	*lig	*	*	*	*	*	*	*	*
2E/	.	-ſti-	1G	.	et	1c	-re	de-	4e\	.	.
.	.	.	.	.	.	.	.	.	4f\	.	.
2C/	.	-ti-	.	.	.	.	.	.	2.g\	.	.
*	*	*	*custos:G	*	*	*	*	*	*	*	*
1F	-rem	-a(m)	1A	.	.	0c	tu-	-du-	.	.	.
.	.	.	.	.	.	.	.	.	4f\	.	.
.	.	.	.	.	.	.	.	.	1f	.	.
*	*	*	*Xlig	*	*	*	*	*	*	*	*
!	!	!	!LO:LB:g=original	!	!	!	!	!	!	!	!
=22	=22	=22	=22	=22	=22	=22	=22	=22	=22	=22	=22
*	*	*	*lig	*	*	*	*	*	*	*	*
*	*	*	*xywh-#482:1276,2161,4215,811	*	*	*	*	*	*	*	*
2C/	tu-	et	1G	.	.	.	.	.	.	.	.
2C/	-am,	de-	.	.	.	.	.	.	2e\	-am,	-cet
2D/	qui-	.	1F	.	.	1A	-am	-cet	1f	.	te
1F	-a	-du-	.	.	.	.	.	.	.	.	.
*	*	*	*Xlig	*	*	*	*Xij	*	*	*	*
=23	=23	=23	=23	=23	=23	=23	=23	=23	=23	=23	=23
.	.	.	1G	Qui-	de-	1r	.	.	2r	.	.
2E/	con-	.	.	.	.	.	.	.	2c/	Qui-	mi-
*	*	*	*lig	*	*	*	*	*	*	*	*
2D/	-cu-	.	1A	-a	.	2r	.	.	2d/	-a	-ra-
*	*	*	*	*	*	*	*	*	*custos:f	*	*
2C/	-pi-	.	.	.	.	2c\	qui-	de-	2e\	co(n)-	.
!	!	!	!	!	!	!	!	!	!LO:LB:g=original	!	!
=24	=24	=24	=24	=24	=24	=24	=24	=24	=24	=24	=24
*lig	*	*	*	*	*	*	*	*	*	*	*
*	*	*	*	*	*	*	*	*	*xywh-#104:6167,1438,4113,822	*	*
1D	-uit	.	1F	.	.	2A/	-a	.	2f\	-cu-	.
.	.	.	.	.	.	2.B/	con-	-du-	1d	-pi-	-bi-
*	*	*	*Xlig	*	*	*	*	*	*	*	*
1E	.	.	1G	con-	-du-	.	.	.	.	.	.
.	.	.	.	.	.	4A/	-cu-	.	.	.	.
.	.	.	.	.	.	1G	-pi-	.	2c\	-uit	-li-
*Xlig	*	*	*	*	*	*	*	*	*	*	*
=25	=25	=25	=25	=25	=25	=25	=25	=25	=25	=25	=25
1D	.	.	1A	-cu-	-cet	.	.	.	2d\	.	-ter
.	.	.	.	.	.	2F/	-uit	-cet	2f\	.	Mi-
*	*	*	*lig	*	*	*	*	*	*	*	*
1C	rex:	-cet	1c	-pi-	te	1G	.	te	2e\	.	-ra-
.	.	.	.	.	.	.	.	.	1c	.	-bi-
=26	=26	=26	=26	=26	=26	=26	=26	=26	=26	=26	=26
1GG	.	te	1d	.	.	2r	.	.	.	.	.
.	.	.	.	.	.	2G/	con-	mi-	2B/	.	-li-
*	*	*	*Xlig	*	*	*	*	*	*	*	*
2r	.	.	1c	.	mi-	2A/	-cu-	-ra-	2c/	rex	-ter
*	*	*	*	*	*	*custos:E	*	*	*	*	*
2C/	con-	de-	.	.	.	2G/	-pi-	.	2g\	con-	mi-
!	!	!	!	!	!	!LO:LB:g=original	!	!	!	!	!
=27	=27	=27	=27	=27	=27	=27	=27	=27	=27	=27	=27
*	*	*	*	*	*	*xywh-#290:5975,1399,4202,830	*	*	*	*	*
1C	-cu-	-du-	1c	-uit	-ra-	2.E/	-uit;	-bi-	2a\	.	-ra-
.	.	.	.	.	.	.	.	.	2g\	-cu-	.
.	.	.	.	.	.	4F/	.	.	.	.	.
*	*	*	*lig	*	*	*	*	*	*	*	*
1C	-pi-	-cet	1c	Rex	.	4G/	.	.	2.e\	-pi-	-bi-
!	!	!	!	!	!	!LO:TX:t=P:problem=poprawka wysokości	!	!	!	!	!
.	.	.	.	.	.	4D/	.	.	.	.	.
.	.	.	.	.	.	1c	.	.	.	.	.
.	.	.	.	.	.	.	.	.	4f\	-uit	.
=28	=28	=28	=28	=28	=28	=28	=28	=28	=28	=28	=28
1GG	-uit	.	1d	.	.	.	.	.	2g\	rex	.
.	.	.	.	.	.	2B\	rex	-li-	4f\	.	.
.	.	.	.	.	.	.	.	.	4e\	.	.
*	*	*	*Xlig	*	*	*	*	*	*	*	*
*	*	*	*lig	*	*	*	*ij	*	*	*	*
1D	rex	te	1f	.	.	1A	.	-ter	2.d\	.	.
.	.	.	.	.	.	.	.	.	4e\	.	-li-
=29	=29	=29	=29	=29	=29	=29	=29	=29	=29	=29	=29
2r	.	.	1d	.	.	2D/	con-	de-	1f	.	-ter
*	*ij	*	*	*	*	*	*	*	*	*	*
2D/	con-	Mi-	.	.	.	2F/	.	.	.	.	.
*custos:E	*	*	*	*	*	*	*	*	*	*	*
*	*	*	*Xlig	*	*	*	*	*	*	*ij	*
*xywh-#658:1175,2892,4296,771	*	*	*	*	*	*	*	*	*	*	*
2E/	-cu-	-ra-	1c	.	-bi-	2G/	-cu-	.	2r	.	.
*	*	*	*	*	*	*	*	*	*custos:d	*	*
!LO:LB:g=original	!	!	!	!	!	!	!	!	!	!	!
2F\	-pi-	-bi-	.	.	.	2.A/	-pi-	.	2f\	con-	dex-
!	!	!	!	!	!	!	!	!	!LO:LB:g=original	!	!
=30	=30	=30	=30	=30	=30	=30	=30	=30	=30	=30	=30
*	*	*	*	*	*	*	*	*	*xywh-#104:6144,2168,4194,816	*	*
1G	-uit	-li-	1B	.	-li-	.	.	.	2d\	-cu-	-te-
.	.	.	.	.	.	4G/	.	-xte-	.	.	.
.	.	.	.	.	.	1G	-uit	-ra	2d\	-pi-	-ra
1D	rex	-ter	1A	.	-ter	.	.	.	1d	-uit	tu-
.	.	.	.	.	.	2F/	.	.	.	.	.
*	*Xij	*	*	*	*	*	*	*	*	*	*
=31	=31	=31	=31	=31	=31	=31	=31	=31	=31	=31	=31
2r	.	.	1G	.	dex-	2G/	rex	.	1d	rex	-a
*	*	*	*	*	*	*	*Xij	*	*	*	*
2G\	ſpe-	Mi-	.	.	.	2B\	ſpe-	dex-	.	.	.
*	*	*	*lig	*	*	*	*	*	*	*Xij	*
2F\	.	-ra-	1A	ſpe-	.	2c\	-ci-	.	2r	.	.
2.D/	-ci-	-bi-	.	.	.	2d\	-em	.	2.f\	ſpe-	dex-
=32	=32	=32	=32	=32	=32	=32	=32	=32	=32	=32	=32
*	*	*	*	*	*	*lig	*	*	*	*	*
.	.	.	1F	.	.	1A	tu-	.	.	.	.
4E\	-am	-li-	.	.	.	.	.	.	4e\	-ci-	.
2F\	tu-	-ter	.	.	.	.	.	.	1d	-em	.
*	*	*	*Xlig	*	*	*	*	*	*	*	*
*	*	*	*lig	*	*	*	*	*	*	*	*
1E	-am	.	1G	-ci-	.	1G	.	.	.	.	.
.	.	.	.	.	.	.	.	.	2c/	.	-te-
*	*ij	*	*	*	*	*Xlig	*	*	*	*	*
=33	=33	=33	=33	=33	=33	=33	=33	=33	=33	=33	=33
2D/	.	dex-	1A	.	.	2F/	.	-te-	2d/	.	-ra
*	*	*	*	*	*	*custos:G	*	*	*	*	*
1F	ſpe-	-te-	.	.	.	1A	.	-ra	2.c/	tu-	dex-
!	!	!	!	!	!	!	!	!	!	!	!
!	!	!	!	!	!	!LO:LB:g=original	!	!	!	!	!
*	*	*	*Xlig	*	*	*	*	*	*	*	*
*	*	*	*lig	*	*	*xywh-#290:5958,2091,4196,899	*	*	*	*	*
.	.	.	1c	-em	.	.	.	.	.	.	.
.	.	.	.	.	.	.	.	.	4d\	.	.
2E/	-ci-	-ra	.	.	.	2G/	.	tu-	2e\	.	-te-
=34	=34	=34	=34	=34	=34	=34	=34	=34	=34	=34	=34
*	*	*	*custos:c	*	*	*	*	*	*	*	*
2D/	-em	.	1d	.	.	0A	-am;	.	1f	.	-ra
2D/	tu-	tu-	.	.	.	.	.	.	.	.	.
!	!	!	!LO:LB:g=original	!	!	!	!	!	!	!	!
*	*	*	*Xlig	*	*	*	*	*	*	*	*
*	*	*	*lig	*	*	*	*	*	*	*	*
*	*	*	*xywh-#482:1303,2876,4192,862	*	*	*	*	*	*	*	*
1AA	-am	-a	1c	tu-	-te-	.	.	.	1e	.	.
=35	=35	=35	=35	=35	=35	=35	=35	=35	=35	=35	=35
2r	.	.	1A	.	.	1D	.	-a	2d\	.	.
2D/	ſpe-	dex-	.	.	.	.	.	.	2f\	.	tu-
*	*	*	*Xlig	*	*	*	*	*	*	*	*
*	*	*	*lig	*	*	*	*ij	*	*	*	*
1C	.	-te-	1c	-am	-ra	2r	.	.	1e	-am,	-a
.	.	.	.	.	.	1G	ſpe-	dex-	.	.	.
=36	=36	=36	=36	=36	=36	=36	=36	=36	=36	=36	=36
1D	-ci-	-ra	1A	.	.	.	.	.	2r	.	.
*	*	*	*	*	*	*	*	*	*	*ij	*
.	.	.	.	.	.	2F/	.	-te-	1d	ſpe-	dex-
*lig	*	*	*Xlig	*	*	*	*	*	*	*	*
1E	.	.	1G	.	.	2.G/	-ci-	-ra	.	.	.
.	.	.	.	.	.	.	.	.	2c/	.	-te-
.	.	.	.	.	.	4E/	.	.	.	.	.
=37	=37	=37	=37	=37	=37	=37	=37	=37	=37	=37	=37
*	*	*	*lig	*	*	*	*	*	*	*	*
*	*	*	*	*	*	*	*	*	*custos:f	*	*
1D	.	.	1A	.	tu-	4F/	-em	.	2d/	-ci-	-ra
.	.	.	.	.	.	4D/	.	.	.	.	.
*	*	*	*	*	*	*	*	*	*xywh-#104:6125,2897,4101,869	*	*
!	!	!	!	!	!	!	!	!	!LO:LB:g=original	!	!
.	.	.	.	.	.	2d\	tu-	tu-	2f\	.	.
*Xlig	*	*	*	*	*	*	*	*	*	*	*
*custos:D	*	*	*	*	*	*	*	*	*	*	*
*	*	*	*	*	*	*lig	*	*	*	*	*
1C	-em	tu-	1c	.	.	1e	.	.	2e\	-em	tu-
.	.	.	.	.	.	.	.	.	1g	tu-	.
*	*	*	*Xlig	*	*	*	*	*	*	*	*
!LO:LB:g=original	!	!	!	!	!	!	!	!	!	!	!
=38	=38	=38	=38	=38	=38	=38	=38	=38	=38	=38	=38
*	*	*	*lig	*	*	*	*	*	*	*	*
*xywh-#658:5841,638,4222,800	*	*	*	*	*	*	*	*	*	*	*
1D	tu-	.	1A	.	-a	1d	.	.	.	.	.
.	.	.	.	.	.	.	.	.	2f\	.	.
*	*	*	*	*	*	*Xlig	*	*	*	*	*
!	!	!	!	!	!	!	!	!	!	!	!
1GGl	-am	-a	1G;l\	.	.	1dl	-am	-a	1gl	-am	-a
*	*Xij	*	*Xlig	*	*	*	*Xij	*	*	*Xij	*
=39	=39	=39	=39	=39	=39	=39	=39	=39	=39	=39	=39
*	*	*	*lig	*	*	*	*	*	*	*	*
2r	.	.	1G	Spe-	au-	1B	Spe-	au-	1r	.	.
2G\	Spe-	Au-	.	.	.	.	.	.	.	.	.
2F\	-ci-	.	1c	.	.	2A/	-ci-	.	2r	.	.
2E\	-e	.	.	.	.	2G/	-e	.	2g\	Spe-	au-
*	*	*	*Xlig	*	*	*	*	*	*	*	*
=40	=40	=40	=40	=40	=40	=40	=40	=40	=40	=40	=40
*	*	*	*lig	*	*	*	*	*	*	*	*
2D/	tu-	-di	1d	-­-	.	2A/	tu-	.	2f\	-ci-	-di
*	*	*	*	*	*	*custos:A	*	*	*	*	*
2G\	-a	au-	.	.	.	2B/	.	.	2.d/	-e	Fi-
*	*	*	*	*	*	*xywh-#290:5931,2884,4208,812	*	*	*	*	*
!	!	!	!	!	!	!LO:LB:g=original	!	!	!	!	!
2D/	.	-di	1f	.	.	1A	.	.	.	.	.
.	.	.	.	.	.	.	.	.	4c/	.	.
2F\	.	Fi-	.	.	.	.	.	.	1c	tu-	.
*	*	*	*Xlig	*	*	*	*	*	*	*	*
=41	=41	=41	=41	=41	=41	=41	=41	=41	=41	=41	=41
*	*	*	*lig	*	*	*	*	*	*	*	*
1G	.	.	1d	.	-di	2G/	-a,	.	.	.	.
*	*	*	*	*	*	*	*ij	*	*	*	*
.	.	.	.	.	.	2G/	ſpe-	-di	2B/	-a(m)	-li-
2C/	.	-lia	1c	.	.	2G/	-ci-	fi-	1c	.	-a
2F\	ſpe-	.	.	.	.	2A/	-e	-li-	.	.	.
*	*	*	*Xlig	*	*	*	*	*	*	*	*
=42	=42	=42	=42	=42	=42	=42	=42	=42	=42	=42	=42
*	*	*	*lig	*	*	*	*	*	*	*ij	*
2D/	-ci-	au-	1d	-ci-	.	1A	tu-	-a	1f	ſpe-	au-
2D/	-e	.	.	.	.	.	.	.	.	.	.
1G	tu-	.	1B	.	.	1.G	-a	.	2d/	-ci-	-di
.	.	.	.	.	.	.	.	.	2d/	-e	Fi-
*	*	*	*Xlig	*	*	*	*	*	*	*	*
=43	=43	=43	=43	=43	=43	=43	=43	=43	=43	=43	=43
*	*	*	*lig	*	*	*	*	*	*	*	*
1C	-a	-di	1c	.	Fi-	.	.	.	1e	tu-	-li-
.	.	.	.	.	.	2.c\	ſpe-	a-	.	.	.
*	*ij	*	*	*	*	*	*	*	*	*	*
2.F\	ſpe-	Fi-	1A	.	.	.	.	.	1c	-a(m)	-a
.	.	.	.	.	.	4B\	.	.	.	.	.
.	.	.	.	.	.	4A/	.	.	.	.	.
4E/	-ci-	.	.	.	.	4G/	.	.	.	.	.
*	*	*	*Xlig	*	*	*	*	*	*	*	*
=44	=44	=44	=44	=44	=44	=44	=44	=44	=44	=44	=44
2D/	-e	.	1A	-e	-li-	2F/	.	.	2r	.	.
*custos:C	*	*	*	*	*	*	*	*	*custos:e	*	*
2D/	tu-	-li-	.	.	.	2F/	-ci-	-di	1f	ſpe-	au-
*	*	*	*lig	*	*	*	*	*	*	*	*
*xywh-#658:5830,1375,4261,800	*	*	*	*	*	*	*	*	*	*	*
!LO:LB:g=original	!	!	!	!	!	!	!	!	!	!	!
1C	-a	-a	1c	tu-	-a	1G	-e	fi-	.	.	.
*	*	*	*	*	*	*	*	*	*xywh-#105:1593,626,4072,828	*	*
.	.	.	.	.	.	.	.	.	2e\	.	-di
!	!	!	!	!	!	!	!	!	!LO:LB:g=original	!	!
=45	=45	=45	=45	=45	=45	=45	=45	=45	=45	=45	=45
*	*	*	*	*	*	*lig	*	*	*	*	*
0r	.	.	1B	.	.	1G	tu-	-li-	2d/	-ci-	fi-
.	.	.	.	.	.	.	.	.	2.d/	-e	.
*	*	*	*Xlig	*	*	*	*	*	*	*	*
*	*	*	*lig	*	*	*	*	*	*	*	*
.	.	.	1c	.	.	1A	.	.	.	.	.
.	.	.	.	.	.	.	.	.	4c/	.	.
.	.	.	.	.	.	.	.	.	1c	tu-	.
*	*	*	*	*	*	*Xlig	*	*	*	*	*
=46	=46	=46	=46	=46	=46	=46	=46	=46	=46	=46	=46
*	*	*	*custos:c	*	*	*	*	*	*	*	*
2r	.	.	1d	.	.	1.G	-a	-a	.	.	.
2G\	ſpe-	et	.	.	.	.	.	.	2B/	.	-li-
!	!	!	!LO:LB:g=original	!	!	!	!	!	!	!	!
*	*	*	*Xlig	*	*	*	*	*	*	*	*
*	*	*	*lig	*	*	*	*	*	*	*	*
*	*	*	*xywh-#482:5956,640,4146,828	*	*	*	*	*	*	*	*
2E\	-ci-	in-	1c	-a	.	.	.	.	2c/	-a	-a
*	*	*	*	*	*	*	*	*	*	*Xij	*
2F\	-e	-cli-	.	.	.	2A/	ſpe-	Fi-	2f\	ſpe-	et
=47	=47	=47	=47	=47	=47	=47	=47	=47	=47	=47	=47
1G	tu-	-na	1B	.	.	4B\	-ci-	.	2d/	-ci-	.
.	.	.	.	.	.	4c\	.	.	.	.	.
.	.	.	.	.	.	4d\	-e	.	2d/	-e	in-
*	*	*	*	*	*	*custos:c	*	*	*	*	*
.	.	.	.	.	.	4B\	.	.	.	.	.
!	!	!	!	!	!	!	!	!	!	!	!
!	!	!	!	!	!	!LO:LB:g=original	!	!	!	!	!
*	*	*	*Xlig	*	*	*	*	*	*lig	*	*
*	*	*	*	*	*	*xywh-#291:1265,560,4150,835	*	*	*	*	*
1C	-a	.	1G	et	et	1c	tu-	.	1e	tu-	.
*	*Xij	*	*	*	*	*	*	*	*	*	*
=48	=48	=48	=48	=48	=48	=48	=48	=48	=48	=48	=48
1r	.	.	1G	pul-	in-	1B	.	-li-	1d	.	.
*	*	*	*	*	*	*	*	*	*Xlig	*	*
1C	et	et	1c	-chri-	.	2G/	-a	-a	1e	-a,	.
*	*	*	*	*	*	*	*Xij	*	*	*	*
.	.	.	.	.	.	2A/	et	.	.	.	.
=49	=49	=49	=49	=49	=49	=49	=49	=49	=49	=49	=49
*	*	*	*lig	*	*	*	*	*	*	*	*
1C	pul-	in-	1c	-tu-	-cli-	1G	pul-	.	2e/	et	-cli-
.	.	.	.	.	.	.	.	.	1g	pul-	-na
1G	-chri-	.	1d	.	.	2.B\	-chri-	et	.	.	.
.	.	.	.	.	.	.	.	.	4f\	.	.
.	.	.	.	.	.	4c\	-tu-	.	4e\	.	.
*	*	*	*Xlig	*	*	*	*	*	*	*	*
=50	=50	=50	=50	=50	=50	=50	=50	=50	=50	=50	=50
*lig	*	*	*lig	*	*	*	*	*	*	*	*
1G	-tu-	-cli	1B	-di-	-na	2d\	.	.	2d/	-chri-	.
.	.	.	.	.	.	2B/	-di-	in-	1e	.	et
1A	.	.	1c	.	.	2A/	-ne	.	.	.	.
.	.	.	.	.	.	2.F/	.	-cli-	1f	-tu-	in-
*Xlig	*	*	*Xlig	*	*	*	*	*	*	*	*
=51	=51	=51	=51	=51	=51	=51	=51	=51	=51	=51	=51
*	*	*	*lig	*	*	*	*	*	*	*	*
1D	-di-	.	1d	.	.	.	.	.	.	.	.
.	.	.	.	.	.	4G/	.	.	.	.	.
.	.	.	.	.	.	2A/	tu-	.	2f\	-di-	-cli-
*	*	*	*	*	*	*	*	*	*custos:d	*	*
1D	-ne	et	1A	.	.	2D/	-am	.	1f	-ne	-na
.	.	.	.	.	.	4d\	.	.	.	.	.
.	.	.	.	.	.	4c\	.	.	.	.	.
*	*	*	*Xlig	*	*	*	*	*	*	*	*
!	!	!	!	!	!	!	!	!	!LO:LB:g=original	!	!
=52	=52	=52	=52	=52	=52	=52	=52	=52	=52	=52	=52
*	*	*	*	*	*	*	*	*	*xywh-#105:1616,1408,4107,776	*	*
1G	tu-	in-	1G	.	.	4B\	.	.	1d	tu-	au-
.	.	.	.	.	.	4A/	.	.	.	.	.
.	.	.	.	.	.	2B/	.	.	.	.	.
1C	-a	-cli-	1c	-ne	au-	1G	.	-na	2e\	-a	.
*	*	*	*	*	*	*	*	*	*	*ij	*
.	.	.	.	.	.	.	.	.	2e\	et	-rem
=53	=53	=53	=53	=53	=53	=53	=53	=53	=53	=53	=53
*	*ij	*	*lig	*	*	*	*	*	*	*	*
1F	et	.	1c	tu-	-rem	1A	et	et	1.f	pul-	tu-
*	*	*	*	*	*	*custos:A	*	*	*	*	*
2D/	pul-	-na	1d	.	.	2A/	pul-	.	.	.	.
*	*	*	*	*	*	*xywh-#291:1254,1304,4196,818	*	*	*	*	*
!	!	!	!	!	!	!LO:LB:g=original	!	!	!	!	!
2D/	-chri-	in-	.	.	.	2A/	-chri-	in-	2f\	-chri-	-am
*	*	*	*Xlig	*	*	*	*	*	*	*	*
=54	=54	=54	=54	=54	=54	=54	=54	=54	=54	=54	=54
*	*	*	*lig	*	*	*	*	*	*	*	*
1G	-tu-	-cli-	1d	-a	tu-	2.B/	-tu-	.	1g	-tu-	in-
.	.	.	.	.	.	4B/	-di-	-cli-	.	.	.
*custos:D	*	*	*	*	*	*	*	*	*	*	*
2D/	.	-na	1f	.	.	1A	-ne	-na	2f\	-di-	-cli-
*xywh-#658:5819,2114,4307,822	*	*	*	*	*	*	*	*	*	*	*
!LO:LB:g=original	!	!	!	!	!	!	!	!	!	!	!
2.D/	-di-	in-	.	.	.	.	.	.	2d\	-ne	-na
*	*	*	*Xlig	*	*	*	*	*	*	*	*
=55	=55	=55	=55	=55	=55	=55	=55	=55	=55	=55	=55
*	*	*	*lig	*	*	*	*	*	*	*	*
.	.	.	1d	.	-am	2r	.	.	1f	tu-	.
4E\	.	.	.	.	.	.	.	.	.	.	.
4F\	.	.	.	.	.	2.A/	tu-	.	.	.	.
4G\	.	.	.	.	.	.	.	.	.	.	.
2A\	-ne	.	1c	.	.	.	.	.	2e\	-a	au-
.	.	.	.	.	.	4B\	-a,	.	.	.	.
*	*	*	*	*	*	*	*	*	*	*Xij	*
2A\	tu-	-cli-	.	.	.	2c\	.	.	2e\	in-	-re(m)
*	*	*	*Xlig	*	*	*	*	*	*	*	*
=56	=56	=56	=56	=56	=56	=56	=56	=56	=56	=56	=56
*	*	*	*lig	*	*	*	*	*	*	*	*
1D	-a	-na	1d	in-	qui-	0A	.	.	2.f\	-ten-	tu-
.	.	.	.	.	.	.	.	.	4e\	.	.
*lig	*Xij	*	*	*	*	*	*	*	*	*	*
1D	in-	au-	1f	.	.	.	.	.	2d/	.	.
.	.	.	.	.	.	.	.	.	4c/	.	.
.	.	.	.	.	.	.	.	.	4B/	.	.
*	*	*	*Xlig	*	*	*	*	*	*	*	*
=57	=57	=57	=57	=57	=57	=57	=57	=57	=57	=57	=57
*	*	*	*lig	*	*	*	*	*	*	*	*
1F	.	.	1c	-ten-	-a	2r	.	.	1A	.	.
.	.	.	.	.	.	2A/	in-	au-	.	.	.
*Xlig	*	*	*	*	*	*	*	*	*	*	*
*lig	*	*	*	*	*	*lig	*	*	*	*	*
1D	-ten-	-re(m)	1d	.	.	1A	-ten-	-rem	2F/	-de	-am
.	.	.	.	.	.	.	.	.	2f\	in-	qui-
*	*	*	*Xlig	*	*	*	*	*	*	*	*
=58	=58	=58	=58	=58	=58	=58	=58	=58	=58	=58	=58
*	*	*	*lig	*	*	*	*	*	*	*	*
1G	.	.	1d	-de	con-	1B	.	.	1g	-ten-	.
*Xlig	*	*	*	*	*	*Xlig	*	*	*	*	*
*	*	*	*custos:d	*	*	*	*	*	*	*	*
1D	-de	.	1f	.	.	0A	-de	.	2f\	-de	.
.	.	.	.	.	.	.	.	.	2d/	pro	-a
*	*	*	*	*	*	*	*	*	*custos:f	*	*
*	*	*	*Xlig	*	*	*	*	*	*	*	*
!	!	!	!LO:LB:g=original	!	!	!	!	!	!LO:LB:g=original	!	!
=59	=59	=59	=59	=59	=59	=59	=59	=59	=59	=59	=59
*	*	*	*lig	*	*	*	*	*	*	*	*
*	*	*	*xywh-#482:5961,1394,4169,868	*	*	*	*	*	*xywh-#105:1639,2150,4096,816	*	*
2.D/	pro-	tu-	1d	pro-	.	.	.	.	2.f\	ſpe-	con-
4E/	.	.	.	.	.	.	.	.	4g\	-re	.
2F\	.	.	1c	.	.	2F/	pro-	tu-	2a\	.	.
2E/	.	.	.	.	.	2G/	-ſpe-	.	2g\	.	-cu-
*	*	*	*Xlig	*	*	*	*	*	*	*	*
=60	=60	=60	=60	=60	=60	=60	=60	=60	=60	=60	=60
*	*	*	*lig	*	*	*	*	*	*	*	*
1D	-ſpe-	.	1d	-ſpe-	-cu-	0A	-re,	-a(m)	1f	.	-pi-
2AA/	-re	-am	1c	.	.	.	.	.	2e\	.	-vit
2A\	pro-	qui-	.	.	.	.	.	.	2e\	pro-	con-
*	*	*	*Xlig	*	*	*	*	*	*	*	*
=61	=61	=61	=61	=61	=61	=61	=61	=61	=61	=61	=61
2F\	-ce-	-a	1c	-re	-pi-	2r	.	.	2a\	.	-cu-
2G\	.	con-	.	.	.	2.e\	pro-	qvi-	1g	.	-pi-
1A	-de	-cu-	1c	pro-	-vit	.	.	.	.	.	.
.	.	.	.	.	.	4d\	.	.	.	.	.
.	.	.	.	.	.	1c	.	.	2f\	-ce-	.
=62	=62	=62	=62	=62	=62	=62	=62	=62	=62	=62	=62
*custos:G	*	*	*	*	*	*	*	*	*	*	*
*	*ij	*	*lig	*	*	*	*	*	*	*	*
2G\	pro-	.	1d	-ce-	Rex	.	.	.	2g\	-de	-vit
*xywh-#658:5887,2835,4313,942	*	*	*	*	*	*	*	*	*	*	*
!LO:LB:g=original	!	!	!	!	!	!	!	!	!	!	!
2G\	-ſpe-	-pi-	.	.	.	2B/	-ce-	.	2g\	pro-	Con-
*	*	*	*	*	*	*custos:A	*	*	*	*	*
2A\	.	.	1c	.	.	2c/	-de	-a	2e\	-ce-	-cu-
*	*	*	*	*	*	*xywh-#291:1317,2100,4168,835	*	*	*	*	*
!	!	!	!	!	!	!LO:LB:g=original	!	!	!	!	!
1F	.	-vit	.	.	.	1A	.	con-	1f	-de	-pi-
*	*	*	*	*	*	*lig	*	*	*lig	*	*
*	*	*	*Xlig	*	*	*	*	*	*	*	*
=63	=63	=63	=63	=63	=63	=63	=63	=63	=63	=63	=63
*	*	*	*lig	*	*	*	*	*	*	*	*
.	.	.	1d	-de	.	.	.	.	.	.	.
*lig	*	*	*	*	*	*	*	*	*	*	*
1G	.	Rex	.	.	.	1B	.	.	1d	.	.
.	.	.	1B	.	.	.	.	.	.	.	.
*	*	*	*Xlig	*	*	*Xlig	*	*	*Xlig	*	*
*	*	*	*	*	*	*	*	*	*lig	*	*
1E	.	.	.	.	.	1G	.	-cu-	1e	.	.
*Xlig	*	*	*	*	*	*	*	*	*	*	*
=64	=64	=64	=64	=64	=64	=64	=64	=64	=64	=64	=64
*	*	*	*lig	*	*	*	*	*	*	*	*
.	.	.	1c	.	.	.	.	.	.	.	.
1F	.	qui-	.	.	.	1A	.	.	1c	.	.
.	.	.	1A	.	.	.	.	.	.	.	.
*	*	*	*Xlig	*	*	*	*ij	*	*Xlig	*ij	*
2D/	.	-a	.	.	.	2d\	pro-	-pi-	2f\	pro-	.
=65	=65	=65	=65	=65	=65	=65	=65	=65	=65	=65	=65
*	*	*	*lig	*	*	*	*	*	*	*	*
2E/	.	con-	1G	.	.	2B\	.	.	2e\	.	-vit
1C	-re	-cu-	.	.	.	4c\	-ce-	.	2.e\	-ce-	Con-
.	.	.	.	.	.	4B\	.	.	.	.	.
.	.	.	1A	.	.	4A/	.	.	.	.	.
.	.	.	.	.	.	4G/	.	.	4d\	.	-cu-
2D/	pro-	-pi-	.	.	.	2F/	.	.	1d	.	-pi-
*	*	*	*	*	*	*	*	*	*custos:c	*	*
*	*	*	*Xlig	*	*	*	*	*	*	*	*
!	!	!	!	!	!	!	!	!	!LO:LB:g=original	!	!
=66	=66	=66	=66	=66	=66	=66	=66	=66	=66	=66	=66
*	*	*	*lig	*	*	*	*	*	*	*	*
1E	-ce-	-vit	1G	.	.	1G	.	-vit	.	.	.
*	*	*	*	*	*	*	*	*	*xywh-#105:1675,2917,4049,793	*	*
.	.	.	.	.	.	.	.	.	2c/	.	-vit
1D	.	Rex	1F	.	.	1A	-de	Rex	0d	-de	Rex
*	*	*	*Xlig	*	*	*	*Xij	*	*	*Xij	*
=67	=67	=67	=67	=67	=67	=67	=67	=67	=67	=67	=67
*	*	*	*lig	*	*	*	*	*	*	*	*
2GG/	-de	.	1G	et	ſpe-	1B	et	qui-	.	.	.
*	*Xij	*	*	*	*	*	*	*	*	*	*
1G	et	ſpe-	.	.	.	.	.	.	.	.	.
.	.	.	1A	.	.	2c\	re-	-a	2r	.	.
2F\	.	-ci-	.	.	.	1A	-gna	con-	2d\	et	ſpe-
*	*	*	*Xlig	*	*	*	*	*	*	*	*
=68	=68	=68	=68	=68	=68	=68	=68	=68	=68	=68	=68
*	*	*	*lig	*	*	*	*ij	*	*	*	*
1E	re-	-em	1c	re-	.	.	.	.	2e\	re-	-ci-
.	.	.	.	.	.	2G/	.	-cu-	1g	-gna,	-em
1D	-gna	.	1d	.	.	1A	et	-pi-	.	.	.
.	.	.	.	.	.	.	.	.	2f\	.	tu-
*	*	*	*Xlig	*	*	*	*	*	*	*	*
=69	=69	=69	=69	=69	=69	=69	=69	=69	=69	=69	=69
*	*ij	*	*lig	*	*	*	*	*	*	*	*
1r	.	.	1d	-gna	-ci-	2G/	.	.	0g	.	-a(m)
.	.	.	.	.	.	2G/	re-	-vit	.	.	.
2r	.	.	1e	.	.	2.c\	.	Rex	.	.	.
1C	et	ſpe-	.	.	.	.	.	.	.	.	.
.	.	.	.	.	.	4B\	.	.	.	.	.
*	*	*	*Xlig	*	*	*	*	*	*	*ij	*
=70	=70	=70	=70	=70	=70	=70	=70	=70	=70	=70	=70
.	.	.	1d	.	-em	4A/	.	.	2r	.	.
.	.	.	.	.	.	4G/	.	.	.	.	.
*	*	*	*	*	*	*custos:F	*	*	*	*	*
2BB/	.	-ci-	.	.	.	1G	.	.	2g\	et	qui-
1AA	re-	-em	1c	.	.	.	.	.	2e\	re-	-a
*	*	*	*	*	*	*xywh-#291:1265,2799,4122,928	*	*	*	*	*
!	!	!	!	!	!	!LO:LB:g=original	!	!	!	!	!
.	.	.	.	.	.	2F/	.	.	2f\	.	Con-
=71	=71	=71	=71	=71	=71	=71	=71	=71	=71	=71	=71
*custos:G	*	*	*custos:c	*	*	*	*	*	*	*	*
2GG/	-gna	.	1B	.	.	1G	-gna	.	2d/	.	-cu-
*	*Xij	*	*	*	*	*	*	*	*	*	*
*xywh-#659:1342,530,4120,885	*	*	*	*	*	*	*	*	*	*	*
!LO:LB:g=original	!	!	!	!	!	!	!	!	!	!	!
2G\	et	ſpe-	.	.	.	.	.	.	1e	-gna	-pi-
!	!	!	!LO:LB:g=original	!	!	!	!	!	!	!	!
*	*	*	*lig	*	*	*	*Xij	*	*	*	*
*	*	*	*xywh-#482:5892,2154,1959,685	*	*	*	*	*	*	*	*
2E/	re-	-ci-	1c	.	tu-	2r	.	.	.	.	.
1F	.	-em	.	.	.	1A	et	ſpe-	2c/	et	-vit
=72	=72	=72	=72	=72	=72	=72	=72	=72	=72	=72	=72
.	.	.	1A	.	.	.	.	.	1f	re-	Rex
2D/	.	tu-	.	.	.	1d	.	.	.	.	.
*	*	*	*Xlig	*	*	*	*	*	*	*	*
1E	.	.	1G	.	.	.	.	.	2e\	.	.
.	.	.	.	.	.	2c\	re-	-ci-	2g\	.	ſpe-
=73	=73	=73	=73	=73	=73	=73	=73	=73	=73	=73	=73
*	*	*	*lig	*	*	*	*	*	*	*	*
1D	.	.	1A	.	.	2d\	-gna	-em	2f\	.	.
.	.	.	.	.	.	2f\	.	.	2d/	.	.
*lig	*	*	*	*	*	*	*ij	*	*	*	*
1C	.	.	1c	.	.	1e	et	tu-	2e\	-gna	.
*	*	*	*	*	*	*	*	*	*	*Xij	*
.	.	.	.	.	.	.	.	.	1g	et	.
*	*	*	*	*	*	*	*	*	*custos:f	*	*
*	*	*	*Xlig	*	*	*	*	*	*	*	*
!	!	!	!	!	!	!	!	!	!LO:LB:g=original	!	!
=74	=74	=74	=74	=74	=74	=74	=74	=74	=74	=74	=74
*	*	*	*lig	*	*	*	*	*	*	*	*
1D	.	.	1A	.	-am	1d	re-	.	.	.	.
*	*	*	*	*	*	*	*	*	*xywh-#105:6017,686,1680,776	*	*
.	.	.	.	.	.	.	.	.	2f\	re-	-ci-
*Xlig	*	*	*	*	*	*	*	*	*	*	*
2GG/	-gna	-am	[1G;l\	.	.	2B\	.	.	2g\	.	-e(m)
*	*ij	*	*	*	*	*	*	*	*	*	*
2.C/	et	ſpe-	.	.	.	1c	.	-am	1e	.	tu-
*	*	*	*Xlig	*	*	*	*	*	*	*	*
=75	=75	=75	=75	=75	=75	=75	=75	=75	=75	=75	=75
.	.	.	0G_	.	.	.	.	.	.	.	.
4D/	.	-ci-	.	.	.	.	.	.	.	.	.
4E/	.	-em	.	.	.	4B\	.	.	4d\	.	.
4F\	.	.	.	.	.	4A/	.	ſpe-	4c\	.	.
2G\	.	tu-	.	.	.	4G/	.	.	2B/	.	.
.	.	.	.	.	.	4E/	-gna	.	.	.	.
1C	re-	.	.	.	.	1e	et	.	1c	.	.
=76	=76	=76	=76	=76	=76	=76	=76	=76	=76	=76	=76
.	.	.	0G_	.	.	.	.	.	.	.	.
2BB/	.	.	.	.	.	2d\	.	.	2d/	.	.
0C	.	-am	.	.	.	2.c\	re-	-ci-	0e	.	.
.	.	.	.	.	.	4B\	.	-e(m)	.	.	.
=77	=77	=77	=77	=77	=77	=77	=77	=77	=77	=77	=77
.	.	.	0G_	.	.	2G/	.	.	.	.	.
.	.	.	.	.	.	1c	.	tu-	.	.	.
1GGl	-gna	.	.	.	.	.	.	.	[1d;l	-gna	-am
.	.	.	.	.	.	4B\	.	.	.	.	.
.	.	.	.	.	.	4A\	.	.	.	.	.
=78	=78	=78	=78	=78	=78	=78	=78	=78	=78	=78	=78
0BByy	.	.	0G]	.	.	0B;l	-gna	-am	0d]	.	.
==	==	==	==	==	==	==	==	==	==	==	==
*-	*-	*-	*-	*-	*-	*-	*-	*-	*-	*-	*-
!!!system-decoration: [(s1,s2,s3,s4)]
!!!RDF**kern: l = terminal long
!!!RDF**kern: > = above
!!!RDF**kern: < = below
!!!ENC: Mateusz Solarz
!!!END: 2022-02-23
!!!ENC: Jan Barakat
!!!END: 2022-02-27
!!!ENC-iiif: Elżbieta Cabała
!!!END-iiif: 2022-09-03
!!!YEC: Copyright 2022 Narodowy Instytut Fryderyka Chopina (https://polishscores.org)
!!!YEM: License CC-BY-4.0 (https://creativecommons.org/licenses/by/4.0)
